src/assets/fleet-icons/pin.svg

<svg width="20" height="20" viewBox="0 0 20 20" fill="none" xmlns="http://www.w3.org/2000/svg">
    <path
        d="M10.3034 5.85646L9.9498 6.21001L8.13025 8.02956L7.94104 8.21878L7.67864 8.1663C7.23361 8.07729 6.43212 7.93555 5.59148 7.97087C4.74114 8.0066 3.93698 8.21982 3.39942 8.75738C3.36889 8.78791 3.36391 8.81354 3.36391 8.82839C3.36391 8.84324 3.36889 8.86887 3.39942 8.8994L3.04587 9.25295L3.39942 8.8994L6.85657 12.3565L7.21012 12.7101L6.85657 13.0637L3.03551 16.8847M10.3034 5.85646L3.03551 16.8847M10.3034 5.85646L9.9498 5.5029L9.52524 5.07834C9.51789 5.07099 9.50777 5.05804 9.49949 5.0415C9.49143 5.02536 9.48814 5.01192 9.48725 5.00307C9.48651 4.99564 9.48726 4.99092 9.48903 4.98596C9.49068 4.98135 9.49767 4.9639 9.52524 4.93632L11.4661 2.99547C11.4966 2.96494 11.5223 2.95996 11.5371 2.95996C11.552 2.95996 11.5776 2.96494 11.6081 2.99547L16.9455 8.33282C16.971 8.3584 16.9918 8.39421 16.9982 8.46426C17.0034 8.52142 16.9978 8.59612 16.9761 8.68679L15.1259 10.537C15.0954 10.5675 15.0698 10.5725 15.0549 10.5725C15.0401 10.5725 15.0144 10.5675 14.9839 10.537L14.5593 10.1124L14.2058 9.75888L13.8522 10.1124L12.0327 11.932L11.8435 12.1212L11.8959 12.3836C11.9849 12.8286 12.1267 13.6301 12.0914 14.4708C12.0556 15.3211 11.8424 16.1253 11.3049 16.6628L11.2698 16.6978L11.2677 16.7011C11.2602 16.7009 11.2488 16.6996 11.2334 16.6945C11.2139 16.6882 11.1834 16.6744 11.1441 16.6441L7.70569 13.2057L7.35214 12.8521L6.99858 13.2057L3.18343 17.0208M10.3034 5.85646L3.18343 17.0208M3.03551 16.8847C3.00498 16.9152 3 16.9409 3 16.9557C3 16.9706 3.00498 16.9962 3.03551 17.0267L3.03554 17.0268C3.03613 17.0274 3.03919 17.0304 3.04951 17.0339C3.06134 17.0378 3.08046 17.0412 3.10548 17.0401C3.13069 17.0389 3.15401 17.0333 3.17116 17.0265C3.17718 17.0241 3.18118 17.0221 3.18343 17.0208M3.03551 16.8847L3.18343 17.0208"
        stroke="#A6A6A6" />
</svg>

<svg width="20" height="20" fill="none" xmlns="http://www.w3.org/2000/svg">
    <path
        d="m10.303 5.856-.353.354-1.82 1.82-.189.189-.262-.053c-.445-.089-1.247-.23-2.088-.195-.85.036-1.654.249-2.192.786-.03.03-.035.057-.035.071 0 .015.005.04.035.071l-.353.354.353-.354 3.458 3.458.353.353-.353.354-3.821 3.82m7.267-11.028L3.036 16.885m7.267-11.029-.353-.353-.425-.425a.148.148 0 0 1-.038-.075c0-.007 0-.012.002-.017a.143.143 0 0 1 .036-.05l1.941-1.94c.03-.031.056-.036.071-.036.015 0 .04.005.071.035l5.337 5.338c.026.025.047.061.053.131a.705.705 0 0 1-.022.223l-1.85 1.85c-.03.03-.056.035-.071.035-.015 0-.04-.004-.071-.035l-.425-.425-.353-.353-.354.353-1.82 1.82-.188.19.052.262c.089.445.23 1.246.195 2.087-.035.85-.249 1.654-.786 2.192l-.035.035-.002.003a.119.119 0 0 1-.035-.006.302.302 0 0 1-.089-.05l-3.438-3.44-.354-.353-.353.354-3.816 3.815m7.12-11.165-7.12 11.165m-.147-.136c-.031.03-.036.056-.036.07 0 .016.005.041.036.072 0 0 .003.003.014.007s.03.007.055.006a.21.21 0 0 0 .078-.02m-.147-.135.147.136"
        stroke="#A6A6A6" />
</svg>
